X:606
T:
S:Upptecknad, såsom pigan Selma Ahlgren, Burs, föresjungit den.
R:schottis
O:Gotland, Burs
M:2/4
L:1/16
K:G
BcBA B2d2|GAGF G2B2|cdcB c2e2|A8|
ABAG A2c2|FGFE F2A2|A2GF G2A2|B8:|
|:g4 f2a2|c6 e2|e2dd d2b2|g6 B2|
B2AA A2f2|f2gf e2f2|g2gg g2g2|g8:|

